X:10116
T:Maid of Mount Kisco, The
T:Maid of Mount Cisco, The
T:Maid of Moncisco, The
C:Paddy Killoran (1904-1965) ()
R:reel
D:Tommy Keane: The Piper's Apron
D:Michael McGoldrick: Morning Rory
Z:id:hn-reel-364
M:C|
K:Ador
EA~A2 BA~A2|EA~A2 BGAG|EG~G2 AG~G2|EG~G2 EGDG|
EA~A2 BAAG|EA~A2 BA (3Bcd|efge afge|1 dBGB ~A3G:|2 dBGB A2dB||
|:~A3B dBAB|G2BG DGBG|~A3B d2 (3Bcd|1 efge dBGB:|2 edge d2 (3Bcd||
|:ea~a2 bgag|egdB GABd|ea~a2 bgaf|gede g2eg|
~a3f ~g3e|dedB GABd|eA~A2 efge|1 dBGB A2 (3Bcd:|2 dBGB ~A3G||
